svg/fluentui-system-icons/ic_fluent_clock_28_regular.svg

<svg width="28" height="28" viewBox="0 0 28 28" fill="none" xmlns="http://www.w3.org/2000/svg">
<path d="M3.5 14C3.5 8.20101 8.20101 3.5 14 3.5C19.799 3.5 24.5 8.20101 24.5 14C24.5 19.799 19.799 24.5 14 24.5C8.20101 24.5 3.5 19.799 3.5 14ZM14 2C7.37258 2 2 7.37258 2 14C2 20.6274 7.37258 26 14 26C20.6274 26 26 20.6274 26 14C26 7.37258 20.6274 2 14 2ZM13.9931 7.64827C13.9435 7.28233 13.6295 7 13.25 7C12.836 7 12.5 7.336 12.5 7.75V14.75L12.5069 14.8517C12.5565 15.2177 12.8705 15.5 13.25 15.5H18.25L18.3517 15.4931C18.7177 15.4435 19 15.1295 19 14.75C19 14.336 18.664 14 18.25 14H14V7.75L13.9931 7.64827Z" fill="#212121"/>
</svg>

<svg xmlns="http://www.w3.org/2000/svg" width="28" height="28"><path d="M3.5 14C3.5 8.201 8.201 3.5 14 3.5S24.5 8.201 24.5 14 19.799 24.5 14 24.5 3.5 19.799 3.5 14ZM14 2C7.373 2 2 7.373 2 14s5.373 12 12 12 12-5.373 12-12S20.627 2 14 2Zm-.007 5.648a.75.75 0 0 0-1.493.102v7l.007.102a.75.75 0 0 0 .743.648h5l.102-.007A.75.75 0 0 0 18.25 14H14V7.75l-.007-.102Z"/></svg>
